icons/chart-square.svg

<svg xmlns="http://www.w3.org/2000/svg" viewBox="0 0 24 24" fill="currentColor">
  <path d="M3.75 7c0-1.78579 1.46421-3.25 3.25-3.25h10c1.7858 0 3.25 1.46421 3.25 3.25v10c0 1.7858-1.4642 3.25-3.25 3.25H7c-1.87354 0-3.25-1.4519-3.25-3.25V7ZM7 2.25C4.38579 2.25 2.25 4.38579 2.25 7v10c0 2.6019 2.02354 4.75 4.75 4.75h10c2.6142 0 4.75-2.1358 4.75-4.75V7c0-2.61421-2.1358-4.75-4.75-4.75H7ZM8.75 14c0-.4142-.33579-.75-.75-.75s-.75.3358-.75.75v2.3c0 .4142.33579.75.75.75s.75-.3358.75-.75V14ZM12 10.05c.4142 0 .75.3358.75.75v5.5c0 .4143-.3358.75-.75.75s-.75-.3357-.75-.75v-5.5c0-.4142.3358-.75.75-.75Zm4.75-2.55c0-.41421-.3358-.75-.75-.75s-.75.33579-.75.75v8.8c0 .4142.3358.75.75.75s.75-.3358.75-.75V7.5Z"/>
</svg>

<svg width="24" height="24" viewBox="0 0 24 24" fill="none" xmlns="http://www.w3.org/2000/svg">
<path fill-rule="evenodd" clip-rule="evenodd" d="M3.75 7C3.75 5.21421 5.21421 3.75 7 3.75H17C18.7858 3.75 20.25 5.21421 20.25 7V17C20.25 18.7858 18.7858 20.25 17 20.25H7C5.12646 20.25 3.75 18.7981 3.75 17V7ZM7 2.25C4.38579 2.25 2.25 4.38579 2.25 7V17C2.25 19.6019 4.27354 21.75 7 21.75H17C19.6142 21.75 21.75 19.6142 21.75 17V7C21.75 4.38579 19.6142 2.25 17 2.25H7ZM8.75 14C8.75 13.5858 8.41421 13.25 8 13.25C7.58579 13.25 7.25 13.5858 7.25 14V16.3C7.25 16.7142 7.58579 17.05 8 17.05C8.41421 17.05 8.75 16.7142 8.75 16.3V14ZM12 10.05C12.4142 10.05 12.75 10.3858 12.75 10.8V16.3C12.75 16.7143 12.4142 17.05 12 17.05C11.5858 17.05 11.25 16.7143 11.25 16.3V10.8C11.25 10.3858 11.5858 10.05 12 10.05ZM16.75 7.5C16.75 7.08579 16.4142 6.75 16 6.75C15.5858 6.75 15.25 7.08579 15.25 7.5V16.3C15.25 16.7142 15.5858 17.05 16 17.05C16.4142 17.05 16.75 16.7142 16.75 16.3V7.5Z" fill="black"/>
</svg>
